X: 61
T: 61. Jesu Leiden, Pein und Tod
N: Derived from chor061.krn
C: Johann Sebastian Bach
%%abc-version 2.0
%%abcx-abcm2ps-target-version 5.9.1 (29 Sep 2008)
%%abc-creator hum2abc beta
%%abcx-conversion-date 2019/03/11 17:28:17
%%abc-edited-by Craig Stuart Sapp
%%humdrum-veritas 3017129346
%%humdrum-veritas-data 2058456681
%%
%%barnumbers 0
L: 1/8
M: C
%%staves [1 2 3 4]
V: 1 clef=treble
V: 2 clef=treble
V: 3 clef=treble-8
V: 4 clef=bass
K: Eb
[V:1] G2F2E2F2 | 
[V:2] E2D2DC CB, | 
[V:3] B2BAG2F2 | 
[V:4] E,2B,,2C,2D,2 | 
[V:1] G2A2!fermata!B4 | 
[V:2] B,2A,2!fermata!E4 | 
[V:3] Ee e_d!fermata!_d4 | 
[V:4] E,2F,2!fermata!G,4 | 
[V:1] c2B2A2GF | 
[V:2] EA AG GFE2 | 
[V:3] c2=d2ed ec | 
[V:4] A,2B,2C2B,A, | 
[V:1] F4!fermata!E4 | 
[V:2] E2D2!fermata!B,4 | 
[V:3] B3A!fermata!G4 | 
[V:4] B,2B,,2!fermata!E,4 | 
[V:1] G2B2A2G2 | 
[V:2] E2F2EF GE | 
[V:3] B2B2cd ec | 
[V:4] E,D, D,C,C,4- | 
[V:1] F2E2!fermata!D4 | 
[V:2] D2C2!fermata!=B,4 | 
[V:3] AGG2!fermata!G4 | 
[V:4] C,=B,, C,E,!fermata!G,4 | 
[V:1] E2F2G2G2 | 
[V:2] C2D2E2E2- | 
[V:3] G2_B2B2B2 | 
[V:4] C,C _B,A, G,F, E,D, | 
[V:1] A4!fermata!G4 | 
[V:2] ED/E/ FD!fermata!E4 | 
[V:3] cAFB!fermata!B4 | 
[V:4] C,F,D,B,,!fermata!E,4 | 
[V:1] G2A2B2A2 | 
[V:2] E2E2=E2F2 | 
[V:3] c2c2B2c2 | 
[V:4] C,2B,,A,, G,,G,2F,- | 
[V:1] G2F2!fermata!G4 | 
[V:2] _DC C=D!fermata!=E4 | 
[V:3] B2A2!fermata!G4 | 
[V:4] F,=E,F,2!fermata!C,4 | 
[V:1] F2F2G=AB2 | 
[V:2] C2CDE2_DE | 
[V:3] AB cBB3c | 
[V:4] F,G,A,2G,2_G,2 | 
[V:1] B2=A2!fermata!B4 | 
[V:2] F4!fermata!F4 | 
[V:3] _d2c2!fermata!d4 | 
[V:4] F,E,F,2!fermata!B,,4 | 
[V:1] B2G2c2B2 | 
[V:2] F2EFG2G2 | 
[V:3] B2B2e2dB | 
[V:4] D,B,,E,2E,C,G,2 | 
[V:1] A2G2!fermata!F4 | 
[V:2] EF B,C!fermata!D4 | 
[V:3] cde2!fermata!B4 | 
[V:4] G,F, G,A,!fermata!B,4 | 
[V:1] GAB2A2GF | 
[V:2] E3B, EF GC | 
[V:3] BA GF EDE2 | 
[V:4] E,3D,C,2B,,A,, | 
[V:1] F4!fermata!E4 |]  
[V:2] DE/C/D2!fermata!B,4 |]  
[V:3] B3A!fermata!G4 |]  
[V:4] B,,4!fermata!E,,4 |]  



